X: 1
T:Willy Davey
M:C
L:1/8
Q:80
C:Arr. P/M J. M. MacKenzie
S:Reel
K:HP
|: {g}e2{A}ef{g}ed{g}cd|
{g}e2{A}ef{g}efga|
{g}e2{A}ef{g}ed{g}cd|  !
{g}Bc{g}de{g}f2a2|
{g}e2{A}ef{g}ed{g}cd|
{g}e2{A}ef{g}efga|  !
{g}e2{A}ef{g}ed{g}cd|
{g}Bc{g}de{gfg}f2{g}e3/2f/2:| |:
{ag}a2Aafe{g}dc|  !
aA{d}Aa{fg}f2{g}e3/2f/2|
{ag}a2Aafe{g}dc|
{g}Bc{g}de{gfg}f2{g}e3/2f/2|  !
{ag}a2Aafe{g}dc|
aA{d}Aa{fg}f2{g}e3/2f|
agae{g}fe{g}dc|  !
{g}Bc{g}de{g}f2a2:|
